icons/fiber/fiber-plain.svg

<?xml version="1.0" encoding="UTF-8"?>
<svg xmlns="http://www.w3.org/2000/svg" xmlns:xlink="http://www.w3.org/1999/xlink" width="128px" height="128px" viewBox="0 0 128 128" version="1.1">
<g id="surface1">
<path style=" stroke:none;fill-rule:nonzero;fill:rgb(0%,67.45098%,84.313725%);fill-opacity:1;" d="M 62.550781 47.980469 C 60.558594 47.980469 58.71875 49.492188 58.429688 51.355469 C 58.15625 53.207031 59.617188 54.742188 61.613281 54.742188 C 63.613281 54.742188 65.464844 53.21875 65.714844 51.355469 C 65.960938 49.492188 64.542969 47.980469 62.550781 47.980469 Z M 36.996094 49.933594 L 32.074219 79.59375 L 39.238281 79.59375 L 41.210938 67.679688 L 52.996094 67.679688 L 53.980469 61.839844 L 42.195312 61.839844 L 43.179688 55.757812 L 56.253906 55.757812 L 57.238281 49.933594 Z M 68.324219 49.933594 L 63.40625 79.59375 L 70.414062 79.59375 L 70.992188 75.984375 L 71.269531 75.984375 C 71.789062 78.039062 73.46875 79.90625 76.828125 79.90625 C 81.753906 79.90625 86.386719 76.058594 87.632812 68.484375 C 88.941406 60.636719 85.34375 57.0625 80.695312 57.0625 C 77.175781 57.0625 74.875 59.113281 73.71875 61.15625 L 73.566406 61.15625 L 75.402344 49.933594 Z M 126.058594 57.050781 C 123.625 57.050781 121.441406 58.464844 120.121094 61.402344 L 119.894531 61.402344 L 120.578125 57.347656 L 113.707031 57.347656 L 110.003906 79.589844 L 117.082031 79.589844 L 119.078125 67.515625 C 119.542969 64.863281 121.714844 63.082031 124.21875 63.082031 C 125.105469 63.082031 126.304688 63.214844 126.957031 63.460938 L 128 57.289062 C 127.363281 57.136719 126.714844 57.054688 126.058594 57.050781 Z M 101.398438 57.0625 C 94.695312 57.0625 89.59375 61.667969 88.453125 68.558594 C 87.25 75.664062 90.8125 80.007812 97.796875 80.019531 C 103.65625 80.019531 107.898438 77.195312 109.476562 72.820312 L 103.019531 72.636719 C 102.210938 74.125 100.613281 74.90625 98.773438 74.90625 C 96.011719 74.90625 94.679688 73.265625 95.128906 70.441406 L 95.171875 70.179688 L 109.980469 70.179688 L 110.261719 68.414062 C 111.476562 61.101562 107.710938 57.0625 101.398438 57.0625 Z M 57.570312 57.347656 L 53.867188 79.589844 L 60.949219 79.589844 L 64.648438 57.347656 L 57.566406 57.347656 Z M 9.515625 57.808594 L 7.664062 60.429688 L 32.195312 60.414062 L 32.621094 57.804688 L 9.515625 57.804688 Z M 100.746094 62.175781 C 103.0625 62.175781 104.425781 63.796875 104.0625 66.066406 L 95.921875 66.066406 C 96.429688 63.867188 98.457031 62.175781 100.746094 62.175781 Z M 77.265625 62.597656 C 79.890625 62.597656 80.929688 64.886719 80.355469 68.476562 C 79.785156 72.066406 77.921875 74.398438 75.316406 74.398438 C 72.722656 74.398438 71.609375 72.074219 72.195312 68.476562 C 72.773438 64.84375 74.671875 62.597656 77.265625 62.597656 Z M 1.902344 63.242188 L 0 65.855469 L 31.378906 65.835938 L 31.804688 63.242188 Z M 18.210938 68.679688 L 16.492188 71.304688 L 30.5625 71.292969 L 30.988281 68.679688 Z M 18.210938 68.679688 "/>
</g>
</svg>

<svg xmlns="http://www.w3.org/2000/svg" viewBox="0 0 128 128"><path fill="#00acd7" d="M62.55 47.98c-1.99 0-3.83 1.512-4.122 3.376-.272 1.851 1.19 3.386 3.187 3.386 1.998 0 3.85-1.523 4.098-3.387.247-1.863-1.171-3.374-3.162-3.374zm-25.552 1.954-4.924 29.66h7.166l1.97-11.916h11.788l.984-5.84H42.195l.985-6.082h13.074l.986-5.822H36.998zm31.326 0-4.916 29.658h7.006l.58-3.608h.276c.52 2.057 2.2 3.924 5.558 3.924 4.924 0 9.557-3.851 10.803-11.424 1.31-7.847-2.287-11.423-6.936-11.423-3.518 0-5.82 2.053-6.978 4.095h-.152l1.837-11.222h-7.078zm57.735 7.115c-2.433 0-4.618 1.414-5.936 4.353h-.23l.685-4.054h-6.87l-3.706 22.242h7.08l1.998-12.076c.462-2.65 2.636-4.432 5.14-4.432.884 0 2.086.131 2.737.377L128 57.291a8.417 8.417 0 0 0-1.941-.242zm-24.66.014c-6.705 0-11.804 4.604-12.946 11.495-1.202 7.107 2.359 11.451 9.342 11.461 5.861 0 10.105-2.823 11.682-7.197l-6.457-.187c-.808 1.49-2.405 2.273-4.245 2.273-2.765 0-4.096-1.643-3.648-4.467l.045-.26h14.81l.278-1.767c1.216-7.313-2.548-11.352-8.862-11.352zm-43.83.285L53.866 79.59h7.082l3.7-22.242h-7.08zm-48.055.459-1.85 2.623 24.53-.014.427-2.61H9.514zm91.232 4.367c2.316 0 3.679 1.622 3.317 3.894h-8.14c.508-2.2 2.535-3.894 4.823-3.894zm-23.482.424c2.628 0 3.664 2.29 3.092 5.88-.572 3.59-2.434 5.922-5.04 5.922-2.592 0-3.706-2.326-3.12-5.922.578-3.634 2.475-5.88 5.068-5.88zm-75.362.646L0 65.857l31.377-.023.428-2.59H1.902zm16.31 5.436-1.718 2.623 14.067-.01.427-2.613H18.213z"/></svg>
